X:1
T:Across the Eastern Hilltops
T:Across the Eastern Hilltops
T:James Remington Fairlamb (1838–1908)
T:From the New York Herald, before 1917
T:Public Domain Courtesy of the Cyber Hymnal™
T:Public Domain Courtesy of the Cyber Hymnal™
C:James Remington Fairlamb (1838–1908)
Z:Public Domain
Z:Courtesy of the Cyber Hymnal™
%%score 1 2 3
L:1/8
Q:1/4=95
M:6/8
K:C
V:1 treble 
V:2 treble 
V:3 bass 
V:1
 G | A2 G d2 c | B2 c d2 ^d | e2 c B2 A | G3- G2 F | (E>F)E G2 G | (c>d)c e2 e | (d>c)B B2 A | %8
w: 1.~A-|cross the eas- tern|hill- tops gleam The|first bright rays of|dawn; * The|sun- * light danc- es|in * each beam, Up-|on * this Eas- ter|
w: 2.~The|gates of death now|stand a- jar, For|Je- sus, Lord and|King, * No|stone * or seal His|ex- * it bar, While|men * and an- gels|
w: 3.~Now|all His a- go-|ny is past, His|suf- fering and His|pain, * With|glor- * ious vic- to-|ry * at last, Our|Sav- * ior lives to|
 G3- G2 ||"^Refrain" G/G/ (G>A G) c2 c/c/ | (c>Bc) e2 G |!<(! (GA)B cde | f3-!<)! f2 f/f/ | %13
w: morn. *|||||
w: sing: *|Al- le- lu- * * ia! Al- le-|lu- * * ia! The|Lord * is ris- en to-|day; * Al- le-|
w: reign. *|||||
 (efd) c2 c/c/ | (cd_B) A2 c | !>!e2"^rit." G !>!d2 G | c3- c2 |] %17
w: ||||
w: lu- * * ia! Al- le-|lu- * * ia! The|Lord doth reign for|aye. *|
w: ||||
V:2
 G | [EA]2 [EG] [Ed]2 [Ec] | [FB]2 [Fc] [Fd]2 [F^d] | [Ee]2 [Ec] [C_EB]2 [CEA] | %4
 ([B,FG]>A[^A,EG] [B,FG]3/2) (^A/[B,FG]) | ([CE]>F)[CE] .[DG]2 [DG] | ([CEc]>d)[CE] [^FB]2 [FA] | %7
 ([DG][B,G]) G2 [CA][DB] | ([DG][B,G][CA][DB][Ec]) || [FGBd] ([EGe]>[Af] [EGe]) .[Ec]2 [Ec] | %10
 ([Ec]>[FBd][Ec]) .[EG]2 [DFG] | .[EGe]2 .[EGe] .[EGe]2 [EGe] | [FGf]3- [FGf]2 [FGf] | %13
 ([EBe]f[EBd]) .[EAc]2 [EAc] | ([E_Bc]d[CEB]) [CFA]2 [C_EAc] | ([CEG]>A)[CEG] ([B,FG]>A)[B,FG] | %16
 ([CEG]>[B,F][G,D] [G,E]2) |] %17
V:3
 G, | [C,G,]2 [C,G,] [G,,G,]2 [G,,G,] | [D,G,]2 [C,F,] [B,,G,]2 [G,,G,] | %3
 [C,G,]2 [C,G,] [^F,,^F,]2 [F,,F,] | ([D,G,]z[^C,G,] [D,G,]) z [G,,G,] | %5
 [C,G,] z [C,G,] .[B,,G,]2 [B,,G,] | [A,,E,A,] z [A,,E,A,] [E,,E,B,]2 [^C,^A,] | %7
 [D,B,] z [E,^C] [D,D]2 [D,C] | [G,B,]2 z [G,,G,]2 || %9
 [G,,G,] ([C,G,C] z [C,G,C]) .[C,G,C]2 [C,G,C] | ([C,G,C]z[C,G,C]) .[C,G,C]2 [C,G,B,] | %11
 .[C,G,C]2 .[C,G,C] .[C,G,C]2 [^C,^A,] | ([D,B,]2 [C,A,][B,,G,][A,,A,])[G,,B,] | %13
 ([=G,,^G,] z [^G,,G,]) .[A,,A,]2 [A,,A,] | ([G,,G,]z[G,,G,]) [F,,F,]2 [^F,,=F,] | %15
 [G,,G,]z[G,,G,] [G,,G,] z [G,,G,] | [C,,C,]3- [C,,C,]2 |] %17

